icons/circle/48/lshw.svg

<svg xmlns="http://www.w3.org/2000/svg" version="1.1" viewBox="0 0 48 48">
	<defs>
		<linearGradient id="bg" gradientUnits="userSpaceOnUse" x1="0" x2="0" y1="1" y2="47">
			<stop offset="0" stop-color="#edb715"/>
			<stop offset="1" stop-color="#da1"/>
		</linearGradient>
	</defs>
	<path opacity=".05" d="m 36.31 5 c 5.859 4.062 9.688 10.831 9.688 18.5 c 0 12.426 -10.07 22.5 -22.5 22.5 c -7.669 0 -14.438 -3.828 -18.5 -9.688 c 1.037 1.822 2.306 3.499 3.781 4.969 c 4.085 3.712 9.514 5.969 15.469 5.969 c 12.703 0 23 -10.298 23 -23 c 0 -5.954 -2.256 -11.384 -5.969 -15.469 c -1.469 -1.475 -3.147 -2.744 -4.969 -3.781 z m 4.969 3.781 c 3.854 4.113 6.219 9.637 6.219 15.719 c 0 12.703 -10.297 23 -23 23 c -6.081 0 -11.606 -2.364 -15.719 -6.219 c 4.16 4.144 9.883 6.719 16.219 6.719 c 12.703 0 23 -10.298 23 -23 c 0 -6.335 -2.575 -12.06 -6.719 -16.219 z"/>
	<path opacity=".1" d="m 41.28 8.781 c 3.712 4.085 5.969 9.514 5.969 15.469 c 0 12.703 -10.297 23 -23 23 c -5.954 0 -11.384 -2.256 -15.469 -5.969 c 4.113 3.854 9.637 6.219 15.719 6.219 c 12.703 0 23 -10.298 23 -23 c 0 -6.081 -2.364 -11.606 -6.219 -15.719 z"/>
	<path opacity=".2" d="m 31.25 2.375 c 8.615 3.154 14.75 11.417 14.75 21.13 c 0 12.426 -10.07 22.5 -22.5 22.5 c -9.708 0 -17.971 -6.135 -21.12 -14.75 a 23 23 0 0 0 44.875 -7 a 23 23 0 0 0 -16 -21.875 z"/>
	<circle fill="url(#bg)" cx="24" cy="24" r="23"/>
	<path opacity=".1" d="m 40.03 7.531 c 3.712 4.084 5.969 9.514 5.969 15.469 0 12.703 -10.297 23 -23 23 c -5.954 0 -11.384 -2.256 -15.469 -5.969 4.178 4.291 10.01 6.969 16.469 6.969 c 12.703 0 23 -10.298 23 -23 0 -6.462 -2.677 -12.291 -6.969 -16.469 z"/>
	<g opacity=".1" transform="translate(1 1)">
		<path d="M 23 9 A 2 2 0 0 0 21 11 L 21 12.386719 A 12 12 0 0 0 17.910156 13.666016 L 16.929688 12.685547 A 2 2 0 0 0 14.099609 12.685547 L 12.685547 14.099609 A 2 2 0 0 0 12.685547 16.929688 L 13.662109 17.90625 A 12 12 0 0 0 12.392578 21 L 11 21 A 2 2 0 0 0 9 23 L 9 25 A 2 2 0 0 0 11 27 L 12.390625 27 A 12 12 0 0 0 13.671875 30.083984 L 12.685547 31.070312 A 2 2 0 0 0 12.685547 33.900391 L 14.099609 35.314453 A 2 2 0 0 0 16.929688 35.314453 L 17.916016 34.328125 A 12 12 0 0 0 21 35.605469 L 21 37 A 2 2 0 0 0 23 39 L 25 39 A 2 2 0 0 0 27 37 L 27 35.613281 A 12 12 0 0 0 30.089844 34.333984 L 31.070312 35.314453 A 2 2 0 0 0 33.900391 35.314453 L 35.314453 33.900391 A 2 2 0 0 0 35.314453 31.070312 L 34.337891 30.09375 A 12 12 0 0 0 35.607422 27 L 37 27 A 2 2 0 0 0 39 25 L 39 23 A 2 2 0 0 0 37 21 L 35.609375 21 A 12 12 0 0 0 34.328125 17.916016 L 35.314453 16.929688 A 2 2 0 0 0 35.314453 14.099609 L 33.900391 12.685547 A 2 2 0 0 0 31.070312 12.685547 L 30.083984 13.671875 A 12 12 0 0 0 27 12.394531 L 27 11 A 2 2 0 0 0 25 9 L 23 9 z M 24 15 A 9 9 0 0 1 24 33 A 9 9 0 0 1 24 15 z M 24 19 A 1 1 0 0 0 24 21 1 1 0 0 0 24 19 z M 22,22 l 3,0 0,6 1,0 0,1 -4,0 0,-1 1,0 0,-5 -1,0 z"/>
	</g>
	<g fill="#333">
		<path d="M 23 9 A 2 2 0 0 0 21 11 L 21 12.386719 A 12 12 0 0 0 17.910156 13.666016 L 16.929688 12.685547 A 2 2 0 0 0 14.099609 12.685547 L 12.685547 14.099609 A 2 2 0 0 0 12.685547 16.929688 L 13.662109 17.90625 A 12 12 0 0 0 12.392578 21 L 11 21 A 2 2 0 0 0 9 23 L 9 25 A 2 2 0 0 0 11 27 L 12.390625 27 A 12 12 0 0 0 13.671875 30.083984 L 12.685547 31.070312 A 2 2 0 0 0 12.685547 33.900391 L 14.099609 35.314453 A 2 2 0 0 0 16.929688 35.314453 L 17.916016 34.328125 A 12 12 0 0 0 21 35.605469 L 21 37 A 2 2 0 0 0 23 39 L 25 39 A 2 2 0 0 0 27 37 L 27 35.613281 A 12 12 0 0 0 30.089844 34.333984 L 31.070312 35.314453 A 2 2 0 0 0 33.900391 35.314453 L 35.314453 33.900391 A 2 2 0 0 0 35.314453 31.070312 L 34.337891 30.09375 A 12 12 0 0 0 35.607422 27 L 37 27 A 2 2 0 0 0 39 25 L 39 23 A 2 2 0 0 0 37 21 L 35.609375 21 A 12 12 0 0 0 34.328125 17.916016 L 35.314453 16.929688 A 2 2 0 0 0 35.314453 14.099609 L 33.900391 12.685547 A 2 2 0 0 0 31.070312 12.685547 L 30.083984 13.671875 A 12 12 0 0 0 27 12.394531 L 27 11 A 2 2 0 0 0 25 9 L 23 9 z M 24 15 A 9 9 0 0 1 24 33 A 9 9 0 0 1 24 15 z"/>
		<circle cx="24" cy="20" r="1"/>
		<path d="M 22,22 l 3,0 0,6 1,0 0,1 -4,0 0,-1 1,0 0,-5 -1,0 z"/>
	</g>
</svg>

<svg version="1.1" viewBox="0 0 48 48" xmlns="http://www.w3.org/2000/svg">
 <defs>
  <linearGradient id="bg" x2="0" y1="1" y2="47" gradientUnits="userSpaceOnUse">
   <stop stop-color="#edb715" offset="0"/>
   <stop stop-color="#da1" offset="1"/>
  </linearGradient>
 </defs>
 <path d="m36.31 5c5.859 4.062 9.688 10.831 9.688 18.5 0 12.426-10.07 22.5-22.5 22.5-7.669 0-14.438-3.828-18.5-9.688 1.037 1.822 2.306 3.499 3.781 4.969 4.085 3.712 9.514 5.969 15.469 5.969 12.703 0 23-10.298 23-23 0-5.954-2.256-11.384-5.969-15.469-1.469-1.475-3.147-2.744-4.969-3.781zm4.969 3.781c3.854 4.113 6.219 9.637 6.219 15.719 0 12.703-10.297 23-23 23-6.081 0-11.606-2.364-15.719-6.219 4.16 4.144 9.883 6.719 16.219 6.719 12.703 0 23-10.298 23-23 0-6.335-2.575-12.06-6.719-16.219z" opacity=".05"/>
 <path d="m41.28 8.781c3.712 4.085 5.969 9.514 5.969 15.469 0 12.703-10.297 23-23 23-5.954 0-11.384-2.256-15.469-5.969 4.113 3.854 9.637 6.219 15.719 6.219 12.703 0 23-10.298 23-23 0-6.081-2.364-11.606-6.219-15.719z" opacity=".1"/>
 <path d="m31.25 2.375c8.615 3.154 14.75 11.417 14.75 21.13 0 12.426-10.07 22.5-22.5 22.5-9.708 0-17.971-6.135-21.12-14.75a23 23 0 0 0 44.875-7 23 23 0 0 0-16-21.875z" opacity=".2"/>
 <circle cx="24" cy="24" r="23" fill="url(#bg)"/>
 <path d="m40.03 7.531c3.712 4.084 5.969 9.514 5.969 15.469 0 12.703-10.297 23-23 23-5.954 0-11.384-2.256-15.469-5.969 4.178 4.291 10.01 6.969 16.469 6.969 12.703 0 23-10.298 23-23 0-6.462-2.677-12.291-6.969-16.469z" opacity=".1"/>
 <g transform="translate(1 1)" opacity=".1">
  <path d="m23 9a2 2 0 0 0-2 2v1.3867a12 12 0 0 0-3.0898 1.2793l-0.98047-0.98047a2 2 0 0 0-2.8301 0l-1.4141 1.4141a2 2 0 0 0 0 2.8301l0.97656 0.97656a12 12 0 0 0-1.2695 3.0938h-1.3926a2 2 0 0 0-2 2v2a2 2 0 0 0 2 2h1.3906a12 12 0 0 0 1.2812 3.084l-0.98633 0.98633a2 2 0 0 0 0 2.8301l1.4141 1.4141a2 2 0 0 0 2.8301 0l0.98633-0.98633a12 12 0 0 0 3.084 1.2773v1.3945a2 2 0 0 0 2 2h2a2 2 0 0 0 2-2v-1.3867a12 12 0 0 0 3.0898-1.2793l0.98047 0.98047a2 2 0 0 0 2.8301 0l1.4141-1.4141a2 2 0 0 0 0-2.8301l-0.97656-0.97656a12 12 0 0 0 1.2695-3.0938h1.3926a2 2 0 0 0 2-2v-2a2 2 0 0 0-2-2h-1.3906a12 12 0 0 0-1.2812-3.084l0.98633-0.98633a2 2 0 0 0 0-2.8301l-1.4141-1.4141a2 2 0 0 0-2.8301 0l-0.98633 0.98633a12 12 0 0 0-3.084-1.2773v-1.3945a2 2 0 0 0-2-2h-2zm1 6a9 9 0 0 1 0 18 9 9 0 0 1 0-18zm0 4a1 1 0 0 0 0 2 1 1 0 0 0 0-2zm-2 3h3v6h1v1h-4v-1h1v-5h-1z"/>
 </g>
 <path d="m23 9a2 2 0 0 0-2 2v1.3867a12 12 0 0 0-3.0898 1.2793l-0.98047-0.98047a2 2 0 0 0-2.8301 0l-1.4141 1.4141a2 2 0 0 0 0 2.8301l0.97656 0.97656a12 12 0 0 0-1.2695 3.0938h-1.3926a2 2 0 0 0-2 2v2a2 2 0 0 0 2 2h1.3906a12 12 0 0 0 1.2812 3.084l-0.98633 0.98633a2 2 0 0 0 0 2.8301l1.4141 1.4141a2 2 0 0 0 2.8301 0l0.98633-0.98633a12 12 0 0 0 3.084 1.2773v1.3945a2 2 0 0 0 2 2h2a2 2 0 0 0 2-2v-1.3867a12 12 0 0 0 3.0898-1.2793l0.98047 0.98047a2 2 0 0 0 2.8301 0l1.4141-1.4141a2 2 0 0 0 0-2.8301l-0.97656-0.97656a12 12 0 0 0 1.2695-3.0938h1.3926a2 2 0 0 0 2-2v-2a2 2 0 0 0-2-2h-1.3906a12 12 0 0 0-1.2812-3.084l0.98633-0.98633a2 2 0 0 0 0-2.8301l-1.4141-1.4141a2 2 0 0 0-2.8301 0l-0.98633 0.98633a12 12 0 0 0-3.084-1.2773v-1.3945a2 2 0 0 0-2-2zm1 6a9 9 0 0 1 0 18 9 9 0 0 1 0-18z" style="fill:#383838"/>
 <path d="m24 19a1 1 0 0 0-1 1 1 1 0 0 0 1 1 1 1 0 0 0 1-1 1 1 0 0 0-1-1zm-2 3v1h1v5h-1v1h4v-1h-1v-6z" style="fill:#383838"/>
</svg>
